X: 2
T: McFadden's Handsome Daughter
R: reel
M: 4/4
L: 1/8
K: Amaj
~e3f edcd|ecac bB~B2|ceef ecAF|EFAB cAAc|~e3f edcd|ecac bB~B2|cefe ~a3f|e2ce aecA||


Tune 1581	Setting 25804

